src/categories-icons-sprite/categories/svg-cat-sport18.svg

<svg width="30" height="30" viewBox="0 0 30 30" fill="none" xmlns="http://www.w3.org/2000/svg">
<path class="p-3F6199" d="M15 30C23.2843 30 30 23.2843 30 15C30 6.71573 23.2843 0 15 0C6.71573 0 0 6.71573 0 15C0 23.2843 6.71573 30 15 30Z" fill="#58ADE5"/>
<path class="p-2B4160" d="M30 14.9999C30 14.5303 29.9773 14.0661 29.9352 13.6076L24.069 7.74146L6.66113 23.0867L13.4998 29.9254C13.9933 29.9744 14.4937 29.9999 15 29.9999C23.2843 29.9999 30 23.2842 30 14.9999Z" fill="#4D98CB"/>
<path class="p-FF583E" d="M15 26.6162C21.4155 26.6162 26.6162 21.4155 26.6162 15C26.6162 8.58454 21.4155 3.38379 15 3.38379C8.58454 3.38379 3.38379 8.58454 3.38379 15C3.38379 21.4155 8.58454 26.6162 15 26.6162Z" fill="#A1D1FD"/>
<path class="p-E82E21" d="M14.9997 3.38379C14.9978 3.38379 14.996 3.38385 14.9941 3.38385V26.6162C14.996 26.6162 14.9978 26.6162 14.9997 26.6162C21.4151 26.6162 26.6159 21.4154 26.6159 15C26.6159 8.58457 21.4151 3.38379 14.9997 3.38379Z" fill="#58ADE5"/>
<path class="p-FFFFFF" d="M10.1534 12.4094V21.0141H7.77568V15.3758C7.3909 15.6682 7.01871 15.9048 6.659 16.0857C6.29918 16.2665 5.84813 16.4397 5.30566 16.605V14.6775C6.10588 14.4198 6.72721 14.11 7.16971 13.7484C7.61209 13.3868 7.95838 12.9404 8.20852 12.4095H10.1534V12.4094Z" fill="#5FBEFF"/>
<path class="p-FFFFFF" d="M12.8064 16.4665C12.4371 16.2702 12.1678 16.051 11.9986 15.8086C11.7677 15.4777 11.6523 15.0968 11.6523 14.6659C11.6523 13.958 11.985 13.3789 12.6507 12.9288C13.1701 12.5825 13.8569 12.4094 14.711 12.4094C15.8421 12.4094 16.6779 12.6249 17.2185 13.0558C17.759 13.4867 18.0293 14.0292 18.0293 14.6832C18.0293 15.0641 17.9216 15.42 17.7062 15.7509C17.5446 15.9971 17.2907 16.2356 16.9444 16.4665C17.4022 16.6858 17.7437 16.9763 17.9688 17.3379C18.1938 17.6996 18.3063 18.0996 18.3063 18.5383C18.3063 18.9616 18.2091 19.3569 18.0149 19.7243C17.8206 20.0917 17.5821 20.3755 17.2993 20.5755C17.0165 20.7756 16.6644 20.9227 16.2431 21.017C15.8219 21.1112 15.3726 21.1583 14.8956 21.1583C13.9991 21.1583 13.3143 21.0525 12.8411 20.8409C12.3679 20.6294 12.008 20.3178 11.7619 19.906C11.5157 19.4944 11.3926 19.0346 11.3926 18.5267C11.3926 18.0304 11.508 17.6101 11.7389 17.2657C11.9697 16.9215 12.3255 16.655 12.8064 16.4665ZM13.7356 18.4459C13.7356 18.8192 13.8491 19.124 14.0761 19.3606C14.3031 19.5972 14.5628 19.7155 14.8552 19.7155C15.1361 19.7155 15.3881 19.5954 15.6112 19.3548C15.8343 19.1144 15.9459 18.8094 15.9459 18.4401C15.9459 18.067 15.8334 17.7611 15.6083 17.5225C15.3832 17.284 15.1226 17.1647 14.8263 17.1647C14.5339 17.1647 14.279 17.2801 14.0616 17.511C13.8443 17.7419 13.7356 18.0535 13.7356 18.4459ZM13.8626 14.8044C13.8626 15.0969 13.9539 15.3325 14.1367 15.5114C14.3194 15.6903 14.5628 15.7797 14.8668 15.7797C15.136 15.7797 15.3573 15.6913 15.5304 15.5143C15.7036 15.3374 15.7902 15.1084 15.7902 14.8275C15.7902 14.5352 15.6997 14.2976 15.5189 14.1148C15.338 13.9321 15.1072 13.8406 14.8264 13.8406C14.5416 13.8406 14.3099 13.9301 14.131 14.109C13.9521 14.2879 13.8626 14.5197 13.8626 14.8044Z" fill="#5FBEFF"/>
<path class="p-E9EDF5" d="M17.9687 17.3379C17.7436 16.9763 17.4022 16.6858 16.9444 16.4665C17.2906 16.2356 17.5445 15.9972 17.7061 15.7509C17.9216 15.4201 18.0293 15.0642 18.0293 14.6833C18.0293 14.0292 17.7589 13.4868 17.2185 13.0558C16.7243 12.662 15.9827 12.4487 14.9952 12.4148V13.8536C15.2008 13.8838 15.3758 13.9703 15.5189 14.1148C15.6996 14.2975 15.7901 14.5352 15.7901 14.8275C15.7901 15.1084 15.7035 15.3373 15.5304 15.5143C15.3857 15.6622 15.2069 15.7474 14.9951 15.7717V17.1798C15.2224 17.2172 15.4271 17.3306 15.6083 17.5226C15.8334 17.7612 15.9459 18.067 15.9459 18.4402C15.9459 18.8095 15.8343 19.1145 15.6112 19.3549C15.4258 19.5546 15.2202 19.67 14.9951 19.7039V21.1571C15.4351 21.1509 15.8513 21.1046 16.2431 21.0169C16.6644 20.9227 17.0164 20.7755 17.2993 20.5754C17.582 20.3755 17.8205 20.0917 18.0149 19.7242C18.2091 19.3569 18.3063 18.9615 18.3063 18.5383C18.3063 18.0997 18.1938 17.6996 17.9687 17.3379Z" fill="#4D98CB"/>
<path class="p-E9EDF5" d="M17.8545 10.4963H20.0648V8.27441H21.9289V10.4963H24.1507V12.3603H21.9289V14.5707H20.0648V12.3603H17.8545V10.4963Z" fill="#4D98CB"/>
</svg>

<svg width="30" height="30" fill="none" xmlns="http://www.w3.org/2000/svg"><path class="p-3F6199" d="M15 30c8.284 0 15-6.716 15-15 0-8.284-6.716-15-15-15C6.716 0 0 6.716 0 15c0 8.284 6.716 15 15 15z" fill="#58ADE5"/><path class="p-2B4160" d="M30 15c0-.47-.023-.934-.065-1.392L24.07 7.74 6.661 23.087l6.839 6.838c.493.05.994.075 1.5.075 8.284 0 15-6.716 15-15z" fill="#4D98CB"/><path class="p-FF583E" d="M15 26.616c6.416 0 11.616-5.2 11.616-11.616 0-6.415-5.2-11.616-11.616-11.616-6.415 0-11.616 5.2-11.616 11.616 0 6.416 5.2 11.616 11.616 11.616z" fill="#A1D1FD"/><path class="p-E82E21" d="M15 3.384h-.006v23.232H15c6.415 0 11.616-5.2 11.616-11.616 0-6.415-5.2-11.616-11.616-11.616z" fill="#58ADE5"/><path class="p-FFFFFF" d="M10.153 12.41v8.604H7.776v-5.638a7.237 7.237 0 01-1.117.71c-.36.18-.81.354-1.353.519v-1.928c.8-.257 1.421-.567 1.864-.929a3.792 3.792 0 001.039-1.338h1.944zM12.806 16.466c-.369-.196-.638-.415-.807-.657a1.947 1.947 0 01-.347-1.143c0-.708.333-1.287.999-1.737.52-.347 1.206-.52 2.06-.52 1.131 0 1.967.216 2.507.647.541.43.811.973.811 1.627 0 .381-.107.737-.323 1.068-.161.246-.415.485-.762.716.458.219.8.51 1.025.87.225.363.337.763.337 1.201a2.5 2.5 0 01-.291 1.186c-.194.368-.433.651-.716.852-.282.2-.635.347-1.056.441-.421.094-.87.141-1.347.141-.897 0-1.582-.106-2.055-.317a2.32 2.32 0 01-1.08-.935 2.635 2.635 0 01-.368-1.38c0-.496.115-.916.346-1.26.23-.344.586-.611 1.067-.8zm.93 1.98c0 .373.113.678.34.915.227.236.487.354.78.354.28 0 .532-.12.755-.36.223-.24.335-.546.335-.915 0-.373-.113-.679-.338-.918-.225-.238-.485-.357-.782-.357-.292 0-.547.115-.764.346-.218.23-.326.543-.326.935zm.127-3.642c0 .293.09.528.274.707.182.18.426.269.73.269.269 0 .49-.089.663-.266.174-.177.26-.406.26-.686 0-.293-.09-.53-.271-.713a.933.933 0 00-.693-.274c-.284 0-.516.09-.695.268-.179.179-.268.41-.268.695z" fill="#5FBEFF"/><path class="p-E9EDF5" d="M17.969 17.338c-.225-.362-.567-.652-1.025-.872.347-.23.6-.469.762-.715a1.92 1.92 0 00.323-1.068c0-.654-.27-1.196-.81-1.627-.495-.394-1.236-.607-2.224-.641v1.439c.206.03.38.116.524.26.18.183.271.421.271.713 0 .281-.086.51-.26.687a.863.863 0 01-.535.258v1.408c.227.037.432.15.613.343.225.238.338.544.338.917 0 .37-.112.674-.335.915-.185.2-.39.315-.616.349v1.453a6.1 6.1 0 001.248-.14c.421-.094.773-.241 1.056-.442.283-.2.521-.483.716-.85a2.5 2.5 0 00.291-1.187c0-.438-.112-.838-.337-1.2zM17.855 10.496h2.21V8.274h1.864v2.222h2.222v1.864h-2.222v2.21h-1.864v-2.21h-2.21v-1.864z" fill="#4D98CB"/></svg>
